X:1
T:Title
%%score { ( 1 3 ) | ( 2 4 ) }
L:1/8
Q:1/4=108
M:4/4
K:Ab
V:1 treble nm="Grand Piano"
V:3 treble 
V:2 bass 
V:4 bass 
V:1
 [CE]3 [CE] [DF]2 [CE]2 | c3 c d2 c2 | B2 A2 F2 A2 | F3 [CE] [CE]4 | [DE]3 [DE] [DG]2 [EG]2 | %5
w: C.~Harold~Lowden * * *|||||
 [CE]3 [CE] [Ee]2 [Ec]2 | [EB]3 [Ec] [EB]2 [EG]2 | z4 B4 | [CE]3 [CE] [DF]2 [CE]2 | c3 c d2 c2 | %10
w: |||||
 B2 A2 F2 A2 | F3 [CE] [CE]4 | [EA]3 [EA] B2 B2 | c2 d2 e2 c2 | [Ee]3 [Ee] [Ee]2 [Fd]2 | %15
w: |||||
 [Ec]2 [DB]2 [CA]4 | B3 c d2 [EB]2 | [EA]2 B2 c2 [CA]2 | c3 d e2 c2 | B2 A2 B4 | c3 d e2 c2 | %21
w: ||||||
 [FB]2 [Fc]2 [Fd]2 [FB]2 | [Ee]3 [Ee] [Ee]2 [Fd]2 | [Ec]2 [DB]2 [CA]4 |] %24
w: |||
V:2
 [A,,A,]3 [A,,A,] [A,,A,]2 [A,,A,]2 | [A,E]3[K:treble] [A,E] [A,F]2[K:bass] [A,E]2 | %2
 [D,F,D]2 [D,F,D]2 [D,A,D]2 [F,A,D]2 | [A,D]3 [A,,A,] [A,,A,]4 | [B,,G,]3 [B,,G,] [E,B,]2 [E,G,]2 | %5
 [A,,A,]3 [A,,A,] [C,A,]2 [A,,A,]2 | [B,,G,]3 [B,,A,] [B,,G,]2 [B,,B,]2 | z4 E2 z2 | %8
 [A,,A,]3 [A,,A,] [A,,A,]2 [A,,A,]2 | [A,E]3[K:treble] [A,E] [A,F]2[K:bass] [A,E]2 | %10
 [D,F,D]2 [D,F,D]2 [D,A,D]2 [F,A,D]2 | [A,D]3 [A,,A,] [A,,A,]4 | [C,A,]3 [C,A,] [E,G,E]2 [E,G,E]2 | %13
 [A,E]2 [A,B,E]2 [A,CA]2[K:bass] [A,E]2 | [C,A,]3 [C,A,] [C,A,]2 [D,A,]2 | %15
 [E,A,]2 [E,G,]2 [A,,A,]4 | [E,G,E]3 [E,A,E] [E,B,E]2 [D,G,]2 | [C,A,]2 [E,G,E]2 [A,E]2 [A,,A,]2 | %18
 [A,E]3 [A,B,E] [A,CA]2 [A,E]2 | [G,B,E]2[K:bass] [F,B,=D]2 [E,G,E]4 | %20
 [A,E]3 [A,B,E] [A,CA]2 [A,EA]2 | [D,D]2 [C,=A,]2 [B,,B,]2 [D,B,]2 | %22
 [C,A,]3 [C,A,] [C,A,]2 [D,A,]2 | [E,A,]2 [E,G,]2 [A,,A,]4 |] %24
V:3
 x8 | x8 | x8 | x8 | x8 | x8 | x8 | [=DG]2 [DF]2 z2 _D2 | x8 | x8 | x8 | x8 | x8 | x8 | x8 | x8 | %16
 x8 | x8 | x8 | x8 | x8 | x8 | x8 | x8 |] %24
V:4
 x8 | x3[K:treble] x3[K:bass] x2 | x8 | x8 | x8 | x8 | x8 | [B,,B,]2 [B,,A,]2 [E,G,]4 | x8 | %9
 x3[K:treble] x3[K:bass] x2 | x8 | x8 | x8 | x6[K:bass] x2 | x8 | x8 | x8 | x8 | x8 | %19
 x2[K:bass] x6 | x8 | x8 | x8 | x8 |] %24

